X: 3
T: The Porthole Of The Kelp
R: reel
M: 4/4
L: 1/8
K: Ddor
DE|:~F3E FGAG|~F3G EDCE|EFFE FGAG|FDEC DCA,C|~F3E FGAB|cAGF EDCE|DEFG AddB|cAGF EDCE:||:Dddc dcAG|~F3G EDCE|Dddc dcAG|Addc d2de|^fd~d2 dcAG|~F3G EDCE|DEFG AddB|cAGF EDCE:|DE|:~F3E F2DE|FEFG ECCE|F2DE FGAG|FDEC A,DDE|~F3E FGAd|cAGF EDCE|DEFG AddB|cAGF EDCE:||:Dddc dcAG|~F3G EDCE|Dddc dcAG|Addc d2de|eddc dcAG|~F3G EDCE|DEFG AddB|cAGF EDCE:|


Tune 263	Setting 1533

